Sources/FrostedUI/Resources/Icons.xcassets/lock20.imageset/lock-20.svg

<svg width="20" height="20" viewBox="0 0 20 20" fill="none" xmlns="http://www.w3.org/2000/svg" data-fui-icon="true">
  <path
    d="M10.25 0C13.4256 0 16 2.57436 16 5.75V8.13281C17.4434 8.5454 18.5 9.87434 18.5 11.4502V16.5498C18.5 18.4552 16.9552 20 15.0498 20H4.9502C3.04481 20 1.5 18.4552 1.5 16.5498V11.4502C1.5 9.87434 2.55664 8.5454 4 8.13281V5.75C4 2.57436 6.57436 0 9.75 0H10.25ZM4.9502 9.5C3.87324 9.5 3 10.3732 3 11.4502V16.5498C3 17.6268 3.87324 18.5 4.9502 18.5H15.0498C16.1268 18.5 17 17.6268 17 16.5498V11.4502C17 10.3732 16.1268 9.5 15.0498 9.5H4.9502ZM9.75 1.5C7.40279 1.5 5.5 3.40279 5.5 5.75V8H14.5V5.75C14.5 3.40279 12.5972 1.5 10.25 1.5H9.75Z"
    fill="currentColor"
  />
</svg>

<svg xmlns="http://www.w3.org/2000/svg" width="20" height="20" fill="none" data-fui-icon="true" viewBox="0 0 20 20"><path fill="currentColor" d="M10.25 0A5.75 5.75 0 0 1 16 5.75v2.383a3.45 3.45 0 0 1 2.5 3.317v5.1A3.45 3.45 0 0 1 15.05 20H4.95a3.45 3.45 0 0 1-3.45-3.45v-5.1A3.45 3.45 0 0 1 4 8.133V5.75A5.75 5.75 0 0 1 9.75 0zm-5.3 9.5A1.95 1.95 0 0 0 3 11.45v5.1a1.95 1.95 0 0 0 1.95 1.95h10.1A1.95 1.95 0 0 0 17 16.55v-5.1a1.95 1.95 0 0 0-1.95-1.95zm4.8-8A4.25 4.25 0 0 0 5.5 5.75V8h9V5.75a4.25 4.25 0 0 0-4.25-4.25z"/></svg>
